X: 7352
T: Cliffs Of Moher, The
R: jig
M: 6/8
K: Adorian
|:~a3 bag|eaf ged|c2A BAG|EFG ABd|
e2a bag|eaf ged|c2A BAG|1 EFG A2g:|2 EFG A2d||
|:~e3 dBA|e/f/ge dBA|G2B dBA|G2B dBd|
[1 ege dBA|efe dBA|G2B dBG|BAG A2d:|
[2 efe dee|cee Bee|EFG BAG|EDB, A,2g||

